X:93
T:Reel of Mullinavat, The
M:C|
L:1/8
R:Reel
K:EDor
g2fg edBA|GBAG E2DE|GE~E2 GABd|eBBA Bdef|!
g2fg edBA|GBAG E2DE|GE~E2 GFGA|(3Bcd ed e2ef:|!
|:geBe g2bg|afdf afdf|geBe gabg|afdf ~e3f|!
geBe g2bg|afde fa~a2|bfaf gfed|Bgfg e2ef:|]!
"DeZarn's beginning"
ef[|:g2fg edBA|GBAG E2B,E|GEB,E GABd|eB~B2 Bd"etc."ef|!
